icon/pk/taobao.svg

<svg viewBox="0 0 48 48" fill="none" xmlns="http://www.w3.org/2000/svg" height="1em" width="1em">
  <path d="M24 0C37.2548 0 48 10.7452 48 24C48 37.2548 37.2548 48 24 48C10.7452 48 0 37.2548 0 24C0 10.7452 10.7452 0 24 0ZM24 4.36364C13.1551 4.36364 4.36364 13.1551 4.36364 24C4.36364 34.8449 13.1551 43.6364 24 43.6364C34.8449 43.6364 43.6364 34.8449 43.6364 24C43.6364 13.1551 34.8449 4.36364 24 4.36364ZM19.1273 11.6177L22.7626 12.3626C22.6634 13.0622 22.4273 13.8541 22.0543 14.7383C23.2431 14.31 24.3806 13.9947 25.466 13.7917C27.8531 13.3454 29.7082 13.0909 31.5472 13.0909C33.3862 13.0909 34.8014 13.1095 36.5962 14.5261C37.7129 15.4076 38.3999 16.5671 38.6572 18.0045L38.7058 18.3168V30.9897C38.7058 31.8359 38.4803 32.7094 38.0292 33.6101C37.6064 34.4546 36.7928 34.932 35.5885 35.0423L35.3424 35.0595H27.8024C27.3202 33.6504 27.3202 32.8184 27.8024 32.5637C28.5256 32.1816 31.3051 33.2064 32.5259 32.5637C33.2855 32.1638 33.6722 31.4194 33.6858 30.3307L33.6831 30.0921V18.1324C33.6831 16.2794 32.5496 14.9986 29.0578 15.189C27.1624 15.2924 24.9495 15.763 22.4192 16.601L23.2411 16.851L24.2327 17.1886V17.5143C24.2327 18.0662 24.6428 18.5237 25.1772 18.5955L25.3025 18.605L32.6004 18.7457V20.7543H27.1449V23.2534H32.6004V24.8061H27.0854L27.1449 29.6797C27.6591 29.7188 28.1662 29.6142 28.6661 29.3658C29.0013 29.1993 29.2635 28.9579 29.4526 28.6415L29.0889 27.9224C29.0885 27.9216 29.0881 27.9209 29.0877 27.9201C28.8361 27.4205 29.0048 26.8192 29.4611 26.5189L29.5714 26.4551L30.8247 25.8239C30.8745 25.7989 30.9261 25.7776 30.9791 25.7605C31.5114 25.588 32.0798 25.8465 32.307 26.3432L32.3532 26.462L33.0964 28.7558C33.2436 29.2102 33.0774 29.7019 32.6981 29.976L32.5894 30.0451L31.689 30.5466C31.6765 30.5536 31.6639 30.5603 31.6511 30.5667C31.152 30.8195 30.5504 30.6522 30.249 30.1966L30.185 30.0865L30.1714 30.0629C29.6195 30.6617 29.0968 31.1206 28.6034 31.4398C27.7867 31.9681 26.9058 32.3985 25.8899 32.4665L25.6095 32.4759H20.3553C19.9292 32.4759 19.1567 32.1994 18.3633 31.4398C17.8785 30.9756 17.5835 30.2517 17.4785 29.268L17.4545 28.9933V26.2516H21.6108C21.6443 27.4372 21.7552 28.3511 21.9437 28.9933C22.1196 29.5926 22.5858 29.8319 23.3422 29.7111L23.5088 29.6797V24.8061H17.4545V23.2534H23.5088V20.7543H22.3509L20.5157 23.0498L18.5174 21.7861C19.7463 20.4007 20.498 19.5036 20.7724 19.0947C21.0468 18.6858 21.0468 17.9813 20.7724 16.9814L20.8189 17.1633L20.7778 17.1801C20.07 18.2499 19.1326 19.2869 17.9657 20.2909L17.5827 20.6125L15.0765 18.1365C16.2176 17.2504 17.053 16.4263 17.5827 15.6642C18.1124 14.9021 18.6273 13.5533 19.1273 11.6177ZM11.4318 17.788L15.0085 21.15C16.3057 22.3693 16.7268 24.2477 16.093 25.8952L16.0043 26.1087L12.2945 34.4169L8.20691 31.5766L13.409 26.0677C13.4785 25.9941 13.5428 25.9157 13.6014 25.8332C14.2643 24.9 14.0893 23.624 13.2279 22.9005L13.0862 22.791L9.37195 20.1527L11.4318 17.788ZM13.6364 10.9091C15.1426 10.9091 16.3636 12.1301 16.3636 13.6364C16.3636 15.1426 15.1426 16.3636 13.6364 16.3636C12.1301 16.3636 10.9091 15.1426 10.9091 13.6364C10.9091 12.1301 12.1301 10.9091 13.6364 10.9091Z" fill="black"/>
</svg>

<svg width="48" height="48" fill="none" xmlns="http://www.w3.org/2000/svg"><path d="M24 0c13.255 0 24 10.745 24 24S37.255 48 24 48 0 37.255 0 24 10.745 0 24 0Zm0 4.364C13.155 4.364 4.364 13.155 4.364 24c0 10.845 8.791 19.636 19.636 19.636 10.845 0 19.636-8.791 19.636-19.636 0-10.845-8.791-19.636-19.636-19.636Zm-4.873 7.254 3.636.745c-.1.7-.336 1.491-.709 2.375a22.066 22.066 0 0 1 3.412-.946c2.387-.447 4.242-.701 6.081-.701 1.84 0 3.254.019 5.05 1.435 1.116.882 1.803 2.041 2.06 3.479l.049.312V30.99c0 .846-.226 1.72-.677 2.62-.423.845-1.236 1.322-2.44 1.432l-.247.017h-7.54c-.482-1.409-.482-2.24 0-2.495.724-.382 3.503.642 4.724 0 .76-.4 1.146-1.145 1.16-2.233l-.003-.239v-11.96c0-1.853-1.133-3.133-4.625-2.943-1.896.103-4.108.574-6.639 1.412l.822.25.992.338v.325c0 .552.41 1.01.944 1.082l.125.009 7.298.14v2.01h-5.455v2.498H32.6v1.553h-5.515l.06 4.874a2.88 2.88 0 0 0 1.521-.314 1.86 1.86 0 0 0 .787-.724l-.364-.72-.001-.002c-.252-.5-.083-1.1.373-1.401l.11-.064 1.254-.631a1.091 1.091 0 0 1 1.482.52l.046.118.743 2.294c.148.454-.019.946-.398 1.22l-.109.07-.9.5a1.091 1.091 0 0 1-1.44-.35l-.064-.11-.014-.023c-.552.599-1.074 1.058-1.568 1.377-.816.528-1.697.958-2.713 1.027l-.28.009h-5.255c-.426 0-1.198-.277-1.992-1.036-.485-.464-.78-1.188-.884-2.172l-.024-.275v-2.741h4.156c.033 1.185.144 2.1.333 2.741.176.6.642.839 1.398.718l.167-.031v-4.874h-6.055v-1.553h6.055v-2.499H22.35l-1.835 2.296-1.999-1.264c1.23-1.385 1.981-2.282 2.255-2.691.275-.41.275-1.114 0-2.114l.047.182-.041.017c-.708 1.07-1.645 2.107-2.812 3.11l-.383.323-2.506-2.476c1.14-.887 1.976-1.71 2.506-2.473.53-.762 1.044-2.11 1.544-4.046Zm-7.695 6.17 3.576 3.362a4.364 4.364 0 0 1 1.085 4.745l-.089.214-3.71 8.308-4.087-2.84 5.202-5.51a2.182 2.182 0 0 0-.181-3.166l-.142-.11-3.714-2.638 2.06-2.365Zm2.204-6.879a2.727 2.727 0 1 1 0 5.455 2.727 2.727 0 0 1 0-5.455Z" fill="#000"/></svg>
